img/icon-advantages-1.svg

<svg xmlns="http://www.w3.org/2000/svg" fill="#826550" viewBox="0 0 94.94 94.16">
  <path d="M90.28 28.39a47.21 47.21 0 0 0-8.51-13.1l-2 3.78a43.16 43.16 0 0 1 6.42 10c1.37-.23 2.73-.45 4.09-.68zM90 43.56c.09 1.16.16 2.33.16 3.52a43.08 43.08 0 0 1-43.08 43.08q-1.18 0-2.34-.07a7.49 7.49 0 0 1 .26 1.85 6.59 6.59 0 0 1-.4 2.15c.84 0 1.68.07 2.53.07a47 47 0 0 0 46.62-53.24A38.31 38.31 0 0 1 90 43.56zM4 47.08A43.07 43.07 0 0 1 68.65 9.79c1.08-.86 2.21-1.74 3.36-2.62a47.07 47.07 0 1 0-42.35 83.64 18.22 18.22 0 0 1-.57-4.58A43.08 43.08 0 0 1 4 47.08z"/>
  <path d="M38.77 84.91c7.74-2.72 16.31-9.66 14.54-19.83-.9-5.14-4.48-5-7.27-9.25 14.44-12 24.21-28.66 33-46.26h-2c-7.45 5.66-21.91 17-28.42 26.43-2.6 3.78-4.59 9.31-7.27 13.88-4.54 7.75-15.12 21.23-6.61 31.06-1.38 4.62-1.2 12.39 4 12.56 3.26-1.73-1.36-4.61.03-8.59zm8.31-38.83a2.58 2.58 0 1 1-2.58 2.58 2.58 2.58 0 0 1 2.58-2.58zM36.79 75c-1.86-9 7-17 11.9-9.25.25 7.41-6.19 15.76-11.9 9.25z"/>
  <path d="M56 51.2c14-5.2 30.58-7.75 39-18.5-9.41 1.38-18.12 3.47-27.76 4.63C65.05 43.56 60.16 47 56 51.2zM12.34 40c-4.23 12.22 8.42 16 21.8 13.85 3.78-4.81 5.85-10 2-15.86-4.91-7.47-20.92-6.38-23.8 2.01zm5.29 7.27C12.5 36.4 30.51 36.17 32.16 42c2.18 7.58-9.1 8-14.54 5.24z"/>
</svg>

<svg fill="#826550" xmlns="http://www.w3.org/2000/svg" viewBox="0 0 94.94 94.16">
  <path d="M90.28,28.39a47.21,47.21,0,0,0-8.51-13.1q-1,1.89-2,3.78a43.16,43.16,0,0,1,6.42,10C87.56,28.84,88.92,28.62,90.28,28.39Z"/>
  <path d="M90,43.56c.09,1.16.16,2.33.16,3.52A43.08,43.08,0,0,1,47.08,90.16q-1.18,0-2.34-.07A7.49,7.49,0,0,1,45,91.94a6.59,6.59,0,0,1-.4,2.15c.84,0,1.68.07,2.53.07A47,47,0,0,0,93.75,40.92,38.31,38.31,0,0,1,90,43.56Z"/>
  <path d="M4,47.08A43.07,43.07,0,0,1,68.65,9.79c1.08-.86,2.21-1.74,3.36-2.62A47.07,47.07,0,1,0,29.66,90.81a18.22,18.22,0,0,1-.57-4.58A43.08,43.08,0,0,1,4,47.08Z"/>
  <path d="M38.77,84.91c7.74-2.72,16.31-9.66,14.54-19.83-.9-5.14-4.48-5-7.27-9.25,14.44-12,24.21-28.66,33-46.26h-2c-7.45,5.66-21.91,17-28.42,26.43-2.6,3.78-4.59,9.31-7.27,13.88-4.54,7.75-15.12,21.23-6.61,31.06-1.38,4.62-1.2,12.39,4,12.56C42,91.77,37.38,88.89,38.77,84.91Zm8.31-38.83a2.58,2.58,0,1,1-2.58,2.58A2.58,2.58,0,0,1,47.08,46.08ZM36.79,75c-1.86-9,7-17,11.9-9.25C48.94,73.16,42.5,81.51,36.79,75Z"/>
  <path d="M56,51.2c14-5.2,30.58-7.75,39-18.5-9.41,1.38-18.12,3.47-27.76,4.63C65.05,43.56,60.16,47,56,51.2Z"/>
  <path d="M12.34,40C8.11,52.22,20.76,56,34.14,53.85c3.78-4.81,5.85-10,2-15.86C31.23,30.52,15.22,31.61,12.34,40Zm5.29,7.27C12.5,36.4,30.51,36.17,32.16,42,34.34,49.58,23.06,50,17.62,47.24Z"/>
</svg>
